X: 1
T: The Singing Kettle
R: reel
M: 4/4
L: 1/8
K: Edor
|:D|E3F EDB,A,|B,EED EGFE|D3E DB,A,B,|DEFA BdAF|
E3F EDB,A,|B,EED EGFE|D2 FA dfec|dBAF FEE:|
|:A|Bdef gfec|dB~B2 AFEF|D3E DB,A,B,|DEFA BdAd|
Bdef gfec|dB~B2 AFEF|G2BG FGA=c|BGAF GEE:|

composer: Sean Ryan
